documentation/public/assets/images/carousel.svg

<svg width="376" height="234" viewBox="0 0 376 234" fill="none" xmlns="http://www.w3.org/2000/svg">
<path fill-rule="evenodd" clip-rule="evenodd" d="M26.3527 101.645C26.5479 101.841 26.5479 102.157 26.3527 102.353L20.7062 107.999L26.3527 113.645C26.5479 113.841 26.5479 114.157 26.3527 114.353C26.1574 114.548 25.8408 114.548 25.6455 114.353L19.292 107.999L25.6455 101.645C25.8408 101.45 26.1574 101.45 26.3527 101.645Z" fill="#0F67F5"/>
<rect x="90" width="200" height="200" fill="#EEEEEE"/>
<path fill-rule="evenodd" clip-rule="evenodd" d="M351.647 101.645C351.843 101.45 352.159 101.45 352.355 101.645L358.708 107.999L352.355 114.353C352.159 114.548 351.843 114.548 351.647 114.353C351.452 114.157 351.452 113.841 351.647 113.645L357.294 107.999L351.647 102.353C351.452 102.157 351.452 101.841 351.647 101.645Z" fill="#0F67F5" stroke="#0F67F5" stroke-linecap="round"/>
<circle cx="118" cy="228" r="6" fill="#AFAFAF"/>
<circle cx="138" cy="228" r="6" fill="#AFAFAF"/>
<circle cx="158" cy="228" r="6" fill="#AFAFAF"/>
<circle cx="178" cy="228" r="6" fill="#AFAFAF"/>
<circle cx="198" cy="228" r="6" fill="#AFAFAF"/>
<circle cx="218" cy="228" r="6" fill="#AFAFAF"/>
<circle cx="238" cy="228" r="6" fill="#AFAFAF"/>
<circle cx="258" cy="228" r="6" fill="#AFAFAF"/>
</svg>

<svg width="376" height="234" fill="none" xmlns="http://www.w3.org/2000/svg"><path fill-rule="evenodd" clip-rule="evenodd" d="M26.35 101.64c.2.2.2.52 0 .71L20.71 108l5.64 5.64a.5.5 0 0 1-.7.71L19.29 108l6.36-6.36a.5.5 0 0 1 .7 0Z" fill="#0F67F5"/><path fill="#EEE" d="M90 0h200v200H90z"/><path fill-rule="evenodd" clip-rule="evenodd" d="M351.65 101.64a.5.5 0 0 1 .7 0l6.36 6.36-6.35 6.35a.5.5 0 0 1-.71-.7l5.64-5.65-5.64-5.65a.5.5 0 0 1 0-.7Z" fill="#0F67F5" stroke="#0F67F5" stroke-linecap="round"/><circle cx="118" cy="228" r="6" fill="#AFAFAF"/><circle cx="138" cy="228" r="6" fill="#AFAFAF"/><circle cx="158" cy="228" r="6" fill="#AFAFAF"/><circle cx="178" cy="228" r="6" fill="#AFAFAF"/><circle cx="198" cy="228" r="6" fill="#AFAFAF"/><circle cx="218" cy="228" r="6" fill="#AFAFAF"/><circle cx="238" cy="228" r="6" fill="#AFAFAF"/><circle cx="258" cy="228" r="6" fill="#AFAFAF"/></svg>
